package/converter/svg/duotone/flux-capacitor.svg

<svg xmlns="http://www.w3.org/2000/svg" viewBox="0 0 448 512"><!-- Font Awesome Pro 6.0.0-alpha2 by @fontawesome - https://fontawesome.com License - https://fontawesome.com/license (Commercial License) --><defs><style>.fa-secondary{opacity:.4}</style></defs><path d="M448 112V400C447.875 444.125 412.125 479.875 368 480H80C35.875 479.875 0.125 444.125 0 400V112C0.125 67.875 35.875 32.125 80 32H368C412.125 32.125 447.875 67.875 448 112ZM400 160C400 115.816 364.184 80 320 80S240 115.816 240 160C240 176.301 244.934 191.422 253.305 204.07L224 233.375L194.68 204.098C203.062 191.445 208 176.312 208 160C208 115.816 172.184 80 128 80S48 115.816 48 160C48 204.18 83.816 240 128 240C144.301 240 159.426 235.07 172.07 226.695L208 262.625V273.613C171.484 281.027 144 313.297 144 352C144 396.18 179.816 432 224 432S304 396.18 304 352C304 313.297 276.516 281.027 240 273.613V262.625L275.898 226.68C288.549 235.062 303.686 240 320 240C364.184 240 400 204.18 400 160Z" class="fa-secondary"/><path d="M320 112C293.49 112 272 133.49 272 160C272 167.396 273.811 174.318 276.799 180.576L224 233.375L171.174 180.627C174.178 174.355 176 167.418 176 160C176 133.49 154.51 112 128 112S80 133.49 80 160S101.49 208 128 208C135.396 208 142.318 206.189 148.576 203.201L208 262.625V306.937C189.4 313.549 176 331.131 176 352C176 378.51 197.49 400 224 400S272 378.51 272 352C272 331.131 258.6 313.549 240 306.938V262.625L299.371 203.172C305.643 206.176 312.582 208 320 208C346.51 208 368 186.51 368 160S346.51 112 320 112Z" class="fa-primary"/></svg>

<svg xmlns="http://www.w3.org/2000/svg" viewBox="0 0 448 512"><!--! Font Awesome Pro 6.6.0 by @fontawesome - https://fontawesome.com License - https://fontawesome.com/license (Commercial License) Copyright 2024 Fonticons, Inc. --><defs><style>.fa-secondary{opacity:.4}</style></defs><path class="fa-secondary" d="M0 96C0 60.7 28.7 32 64 32l320 0c35.3 0 64 28.7 64 64l0 320c0 35.3-28.7 64-64 64L64 480c-35.3 0-64-28.7-64-64L0 96zm48 64c0 44.2 35.8 80 80 80c16.3 0 31.5-4.9 44.1-13.3c12 12 23.9 23.9 35.9 35.9l0 11c-36.5 7.4-64 39.7-64 78.4c0 44.2 35.8 80 80 80s80-35.8 80-80c0-38.7-27.5-71-64-78.4l0-11 35.9-35.9c12.6 8.4 27.8 13.3 44.1 13.3c44.2 0 80-35.8 80-80s-35.8-80-80-80s-80 35.8-80 80c0 16.3 4.9 31.5 13.3 44.1c-9.8 9.8-19.5 19.5-29.3 29.3c-9.8-9.8-19.5-19.5-29.3-29.3c8.4-12.6 13.3-27.8 13.3-44.1c0-44.2-35.8-80-80-80s-80 35.8-80 80z"/><path class="fa-primary" d="M171.3 180.7c3-6.3 4.7-13.3 4.7-20.7c0-26.5-21.5-48-48-48s-48 21.5-48 48s21.5 48 48 48c7.4 0 14.4-1.7 20.7-4.7L208 262.6l0 44.1c-18.6 6.6-32 24.4-32 45.3c0 26.5 21.5 48 48 48s48-21.5 48-48c0-20.9-13.4-38.7-32-45.3l0-44.1 59.3-59.3c6.3 3 13.3 4.7 20.7 4.7c26.5 0 48-21.5 48-48s-21.5-48-48-48s-48 21.5-48 48c0 7.4 1.7 14.4 4.7 20.7L224 233.4l-52.7-52.7z"/></svg>
